src/assets/custom-arrow-right.svg

<svg width="261" height="261" viewBox="0 0 261 261" fill="none" xmlns="http://www.w3.org/2000/svg">
<path fill-rule="evenodd" clip-rule="evenodd" d="M130.5 261C202.573 261 261 202.573 261 130.5C261 58.4268 202.573 0 130.5 0C58.4268 0 0 58.4268 0 130.5C0 202.573 58.4268 261 130.5 261ZM104.004 84.4292C107.827 80.607 114.023 80.607 117.845 84.4292L156.995 123.58C160.818 127.402 160.818 133.598 156.995 137.42L117.845 176.57C114.023 180.393 107.827 180.393 104.004 176.57C100.182 172.748 100.182 166.552 104.004 162.73L136.233 130.5L104.004 98.2708C100.182 94.4486 100.182 88.2514 104.004 84.4292Z" fill="url(#paint0_linear_1057_1945)"/>
<defs>
<linearGradient id="paint0_linear_1057_1945" x1="130.5" y1="0" x2="130.5" y2="261" gradientUnits="userSpaceOnUse">
<stop stop-color="#024EC9"/>
<stop offset="1" stop-color="#0061FF"/>
</linearGradient>
</defs>
</svg>

<svg width="261" height="261" fill="none" xmlns="http://www.w3.org/2000/svg"><path fill-rule="evenodd" clip-rule="evenodd" d="M130.5 261c72.073 0 130.5-58.427 130.5-130.5C261 58.427 202.573 0 130.5 0 58.427 0 0 58.427 0 130.5 0 202.573 58.427 261 130.5 261zM104.004 84.43c3.823-3.823 10.019-3.823 13.841 0l39.15 39.15a9.784 9.784 0 010 13.84l-39.15 39.15c-3.822 3.823-10.018 3.823-13.841 0-3.822-3.822-3.822-10.018 0-13.84l32.229-32.23-32.229-32.23c-3.822-3.821-3.822-10.019 0-13.84z" fill="url(#paint0_linear_1057_1945)"/><defs><linearGradient id="paint0_linear_1057_1945" x1="130.5" y1="0" x2="130.5" y2="261" gradientUnits="userSpaceOnUse"><stop stop-color="#024EC9"/><stop offset="1" stop-color="#0061FF"/></linearGradient></defs></svg>
